X: 5290
T: Brosna, The
R: slide
M: 12/8
K: Gmajor
|:E|D2 G G2 A BAB d2 B|A2 D FED A2 D F2 D|
D2 G G2 A BAB d2 B|A2 D FED G3 G2:|
|:B/d/|g2 f efg f2 e d2 B|c2 B A2 B c2 d e2 f|
g2 f e2 g f2 e d2 B|c2 A F2 A G3 G2:|

